X: 127
T: Ayağında Halhalı Var Haspanın
C: Bilge Özgen
O: Turkey
F: http://compmusic.upf.edu/node/140
N: nihavent--fantezi--nimsofyan--ayaginda_halhali--bilge_ozgen
N: makam= nihavent
N: form= fantezi
N: usul= nimsofyan = 2/4
M: 2/4
L: 1/16
K: C _B _e  
Q: 1/4=80
%%MIDI tuningsystem comma53
zd^cd e2d2  | zd2d e/d/e/f/d2  | zc=Bc dcc2  | 
w:   |   |   | 
zB/A/Bc d4  | zd^cd e2d2  | zd2d e/d/e/f/d2  | \
w:   |   |   | 
zc=Bc dcc2  | 
w:   | 
zB/A/Bc d4  | gg2e edc2  | ff2d dcB2  | \
w:   |   |   | 
z2dc B2BA  | 
w:   | 
G4 B/A/B/c/d2  | gg2e edc2  | ff2d dcB2  | \
w:   |   |   | 
z2dc B2BA  | 
w:   | 
G4 ABG2  | G2dd c2B2  | zc2d BA3  | zG2A B4  | \
w:   |  *  A ya ğın da   |  hal ha lı  var   |  has pa nın    | 
zB2A BAB2  | 
w:  SAZ  | 
d2e2 dc3  | zg2g g2d2  | zc2B d4  | zdcB cdBA  | 
w:  En ta ri si   |  al lı sın dan   |  bas ma nın    |  SAZ  | 
G2dd c2B2  | zc2d BA3  | zG2A B4  | zB2A BAB2  | \
w:  *  A ya ğın da   |  hal ha lı  var   |  has pa nın    |  SAZ  | 
d2e2 dc3  | 
w:  En ta ri si   | 
zg2g g2d2  | zc2B d4  | zdcB d2c/d/e/f/  | \
w:  al lı sın dan   |  bas ma nın    |   | 
ga2b a2g2  | 
w:  *  Ak lı  fik ri   | 
b2a2 gf3  | ze2d g4  | f2ed cBB/A/B/c/  | \
w:  oy naş ta dır   |  yos ma nın    |  SAZ  | 
dd3 e2d2  | 
w:  E dâ lım sın   | 
zd2d edd2  | c2c2 {B}dcc2  | z2Bc .d4  | \
w:  SAZ  |  sev da *  lım *  sın   |  de li  kız    | 
gg3 {e}edc2  | ff3 {d}dcB2  | 
w:  Be lâ *  lım *  sın   |  he lâ *  lim *  sin   | 
z2dc B2BA  | G4 B/A/B/c/d2  | dd3 e2d2  | \
w:  de li  kız  de li   |  kız   SAZ  |  E dâ lım sın   | 
zd2d edd2  | 
w:  SAZ  | 
c2c2 {B}dcc2  | z2Bc .d4  | gg3 {e}edc2  | \
w:  sev da *  lım *  sın   |  de li  kız    |  Be lâ *  lım *  sın   | 
ff3 {d}dcB2  | z2dc B2BA  | 
w:  he lâ *  lim *  sin   |  de li  kız  de li   | 
G4 zde^f  | gabb baa2  | z2ga agg2  | zg^fg f4  | 
w:  kız   SAZ  |  *  *  Be li  in *  ce   |  gü lü  gon *  ca   |  nâ *  ze nin    | 
zg^fg a/g/f/g/f2  | z2ga g2f2  | zg2f e2f2  | \
w:  *  SAZ  |  E li  iş te   |  ak lı  düş te   | 
zg2e d4  | 
w:  ta ze nin    | 
zg2e zdef  | gabb baa2  | z2ga agg2  | zg^fg f4  | 
w:  SAZ  |  *  *  Be li  in *  ce   |  gü lü  gon *  ca   |  nâ *  ze nin    | 
zg^fg a/g/f/g/f2  | z2ga g2f2  | zg2f e2f2  | \
w:  *  SAZ  |  E li  iş te   |  ak lı  düş te   | 
zg2e d4  | 
w:  ta ze nin    | 
zg2e d2B/A/B/c/  | d2=e2 f_e3  | zded g4  | \
w:   |  Vay  ha li  ne   |  pe şi  sı ra   | 
{e}z2ed c4  | 
w:  *  ge ze nin    | 
zcBA B2B/A/B/c/  | dd3 e2d2  | zd2d edd2  | \
w:  SAZ  |  E dâ lım sın   |  SAZ  | 
c2c2 {B}dcc2  | 
w:  sev da *  lım *  sın   | 
z2Bc .d4  | gg3 {e}edc2  | ff3 {d}dcB2  | \
w:  de li  kız    |  Be lâ *  lım *  sın   |  he lâ *  lim *  sin   | 
z2dc B2BA  | G4 B/A/B/c/d2  | 
w:  de li  kız  de li   |  kız   SAZ  | 
dd3 e2d2  | zd2d edd2  | c2c2 {B}dcc2  | \
w:  E dâ lım sın   |  SAZ  |  sev da *  lım *  sın   | 
z2Bc .d4  | gg3 {e}edc2  | 
w:  de li  kız    |  Be lâ *  lım *  sın   | 
ff3 {d}dcB2  | z2dc B2BA  | .G4 AB.G2  | \
w:  he lâ *  lim *  sin   |  de li  kız  de li   |  kız   SAZ  | 
Gd2d c3B  | c3d BA3  | 
w:  *  Ta ze  por ta  |  kal  çi çe ği   | 
GA3 B4  | zB2A BAB2  | zd2e dc3  | zg2g gd3  | \
w:  da lın da    |  SAZ  |  Yaz gı la rın   |  en  gü ze li   | 
cB3 d4  | 
w:  a lın da    | 
zdcB cdBA  | Gd2d c3B  | c3d BA3  | GA3 B4  | \
w:  SAZ  |  *  Ta ze  por ta  |  kal  çi çe ği   |  da lın da    | 
zB2A BAB2  | 
w:  SAZ  | 
zd2e dc3  | zg2g gd3  | cB3 d4  | zdcB d2c/d/e/f/  | 
w:  Yaz gı la rın   |  en  gü ze li   |  a lın da    |   | 
ga2b a2g2  | zb2a g2f2  | ed3 g4  | fedc B2B/A/B/c/  | 
w:  *  El  be ğen sin   |  bey  be ğen sin   |  sa lın da    |  SAZ  | 
dd3 e2d2  | zd2d edd2  | c2c2 {B}dcc2  | \
w:  E dâ lım sın   |  SAZ  |  sev da *  lım *  sın   | 
z2Bc .d4  | gg3 {e}edc2  | 
w:  de li  kız    |  Be lâ *  lım *  sın   | 
ff3 {d}dcB2  | z2dc B2BA  | G4 B/A/B/c/d2  | \
w:  he lâ *  lim *  sin   |  de li  kız  de li   |  kız   SAZ  | 
dd3 e2d2  | 
w:  E dâ lım sın   | 
zd2d edd2  | c2c2 {B}dcc2  | z2Bc .d4  | \
w:  SAZ  |  sev da *  lım *  sın   |  de li  kız    | 
gg3 {e}edc2  | ff3 {d}dcB2  | 
w:  Be lâ *  lım *  sın   |  he lâ *  lim *  sin   | 
z2dc B2BA  | G4 zde^f  | gabb baa2  | z2ga agg2  | 
w:  de li  kız  de li   |  kız   SAZ  |  *  *  Be li  in *  ce   |  gü lü  gon *  ca   | 
zg^fg f4  | zg^fg a/g/f/g/f2  | z2ga g2f2  | \
w:  nâ *  ze nin    |  *  SAZ  |  E li  iş te   | 
zg2f e2f2  | 
w:  ak lı  düş te   | 
zg2e d4  | zg2e zdef  | gabb baa2  | z2ga agg2  | 
w:  ta ze nin    |  SAZ  |  *  *  Be li  in *  ce   |  gü lü  gon *  ca   | 
zg^fg f4  | zg^fg a/g/f/g/f2  | z2ga g2f2  | \
w:  nâ *  ze nin    |  *  SAZ  |  E li  iş te   | 
zg2f e2f2  | 
w:  ak lı  düş te   | 
zg2e d4  | zg2e d2B/A/B/c/  | d2=e2 f_e3  | \
w:  ta ze nin    |   |  Vay  ha li  ne   | 
zded g4  | 
w:  pe şi  sı ra   | 
{e}z2ed c4  | zcBA B2B/A/B/c/  | dd3 e2d2  | \
w:  *  ge ze nin    |  SAZ  |  E dâ lım sın   | 
zd2d edd2  | 
w:  SAZ  | 
c2c2 {B}dcc2  | z2Bc .d4  | gg3 {e}edc2  | \
w:  sev da *  lım *  sın   |  de li  kız    |  Be lâ *  lım *  sın   | 
ff3 {d}dcB2  | z2dc B2BA  | 
w:  he lâ *  lim *  sin   |  de li  kız  de li   | 
G4 B/A/B/c/d2  | dd3 e2d2  | zd2d edd2  | \
w:  kız   SAZ  |  E dâ lım sın   |  SAZ  | 
c2c2 {B}dcc2  | 
w:  sev da *  lım *  sın   | 
z2Bc .d4  | gg3 {e}edc2  | ff3 {d}dcB2  | \
w:  de li  kız    |  Be lâ *  lım *  sın   |  he lâ *  lim *  sin   | 
z2dc B2BA  | .G4 AB.G2  | 
w:  de li  kız  de li   |  kız   SAZ  | 
|


